vsi/location_light.svg

<svg viewBox="0 0 16 16" fill="none" xmlns="http://www.w3.org/2000/svg" height="1em" width="1em">
  <path fill-rule="evenodd" clip-rule="evenodd" d="M10.8327 2.68759C10.0857 1.94057 9.0767 1.51449 8.02034 1.5H7.98034C6.92398 1.51449 5.91496 1.94057 5.16793 2.68759C4.4209 3.43462 3.99483 4.44364 3.98034 5.5C3.96691 6.25028 4.17794 6.98747 4.58634 7.617L7.73379 14H8.26689L11.4143 7.617C11.8227 6.98747 12.0338 6.25028 12.0203 5.5C12.0059 4.44364 11.5798 3.43462 10.8327 2.68759ZM7.92434 2.5L8.00634 2.51L8.08034 2.5C8.86591 2.53421 9.60852 2.86807 10.1555 3.43293C10.7025 3.99779 11.0124 4.75074 11.0213 5.537C11.0289 6.09502 10.866 6.64206 10.5543 7.105L10.5343 7.139L10.5173 7.174L8.00034 12.279L5.48334 7.179L5.46634 7.14L5.44634 7.106C5.13468 6.64306 4.97175 6.09602 4.97934 5.538C4.98787 4.75083 5.29806 3.99693 5.84599 3.4317C6.39392 2.86647 7.13781 2.53299 7.92434 2.5ZM8.5358 4.66853C8.37135 4.55865 8.17801 4.5 7.98023 4.5C7.71501 4.5 7.46066 4.60536 7.27312 4.79289C7.08558 4.98043 6.98023 5.23478 6.98023 5.5C6.98023 5.69778 7.03887 5.89112 7.14876 6.05557C7.25864 6.22002 7.41482 6.34819 7.59754 6.42388C7.78027 6.49957 7.98134 6.51937 8.17532 6.48079C8.3693 6.4422 8.54748 6.34696 8.68733 6.20711C8.82718 6.06725 8.92243 5.88907 8.96101 5.69509C8.9996 5.50111 8.97979 5.30004 8.90411 5.11732C8.82842 4.93459 8.70024 4.77841 8.5358 4.66853ZM6.86909 3.83706C7.19798 3.6173 7.58466 3.5 7.98023 3.5C8.51066 3.5 9.01937 3.71071 9.39444 4.08579C9.76951 4.46086 9.98023 4.96957 9.98023 5.5C9.98023 5.89556 9.86293 6.28224 9.64317 6.61114C9.4234 6.94004 9.11104 7.19638 8.74559 7.34776C8.38014 7.49913 7.97801 7.53874 7.59005 7.46157C7.20208 7.3844 6.84572 7.19392 6.56601 6.91421C6.28631 6.63451 6.09583 6.27814 6.01866 5.89018C5.94148 5.50222 5.98109 5.10009 6.13247 4.73463C6.28384 4.36918 6.54019 4.05682 6.86909 3.83706Z" fill="#424242"/>
</svg>

<svg viewBox="0 0 16 16" fill="none" xmlns="http://www.w3.org/2000/svg" height="1em" width="1em">
  <path fill-rule="evenodd" clip-rule="evenodd" d="M10.833 2.688A4.056 4.056 0 0 0 8.02 1.5h-.04a4.056 4.056 0 0 0-4 4c-.013.75.198 1.487.606 2.117L7.734 14h.533l3.147-6.383c.409-.63.62-1.367.606-2.117a4.055 4.055 0 0 0-1.187-2.812ZM7.924 2.5l.082.01.074-.01a3.075 3.075 0 0 1 2.941 3.037 2.74 2.74 0 0 1-.467 1.568l-.02.034-.017.035L8 12.279l-2.517-5.1-.017-.039-.02-.034a2.741 2.741 0 0 1-.467-1.568A3.074 3.074 0 0 1 7.924 2.5Zm.612 2.169a1 1 0 1 0-1.111 1.663 1 1 0 0 0 1.11-1.663Zm-1.667-.832a2 2 0 1 1 2.222 3.326A2 2 0 0 1 6.87 3.837Z" fill="#424242"/>
</svg>
